app/static/assets/svg/analytics.svg

<path d="M15.69 65.97H5.14c-1.49 0-2.64 1.16-2.64 2.66v21.22c0 1.49 1.15 2.65 2.64 2.65h10.55c1.49 0 2.64-1.16 2.64-2.65V68.63c0-1.5-1.15-2.66-2.64-2.66zm-2.63 21.22H7.78V71.28h5.28v15.91zm81.8-47.74H84.31c-1.49 0-2.64 1.16-2.64 2.65v47.75c0 1.49 1.15 2.65 2.64 2.65h10.55c1.49 0 2.64-1.16 2.64-2.65V42.1c0-1.49-1.15-2.65-2.64-2.65zm-2.64 47.74h-5.28V44.75h5.28v42.44zm-6.76-64.82c2.44 1.5 5.5 1.55 8 .15a7.972 7.972 0 0 0 4.04-6.95 7.945 7.945 0 0 0-4.73-7.39 7.851 7.851 0 0 0-8.61 1.49 7.988 7.988 0 0 0-2 8.56L67.32 30a7.857 7.857 0 0 0-8.25 0L44.23 18.23c.94-2.43.6-5.18-.89-7.31a7.75 7.75 0 0 0-6.53-3.31 7.923 7.923 0 0 0-6.7 3.75 8 8 0 0 0-.4 7.69L13.88 34.97a7.869 7.869 0 0 0-7.65.4A7.978 7.978 0 0 0 2.5 42.1c-.02 3.29 1.97 6.26 5.02 7.46 3.05 1.2 6.52.4 8.73-2.03a7.992 7.992 0 0 0 1.26-8.91L33.34 22.7a7.88 7.88 0 0 0 7.59-.33l14.84 11.77c-.85 2.43-.48 5.12.99 7.23a7.878 7.878 0 0 0 6.43 3.38 7.896 7.896 0 0 0 6.44-3.38c1.47-2.11 1.84-4.8.99-7.23l14.84-11.77zm4.12-9.45c1.46 0 2.64 1.19 2.64 2.65 0 1.47-1.18 2.66-2.64 2.66-1.45 0-2.64-1.19-2.64-2.66 0-1.46 1.19-2.65 2.64-2.65zM10.42 44.75c-1.46 0-2.64-1.19-2.64-2.65a2.64 2.64 0 1 1 5.28 0c0 1.46-1.19 2.65-2.64 2.65zm26.39-26.52c-1.46 0-2.64-1.19-2.64-2.66 0-1.46 1.18-2.65 2.64-2.65 1.45 0 2.63 1.19 2.63 2.65 0 1.47-1.18 2.66-2.63 2.66zm26.38 21.22c-1.45 0-2.63-1.19-2.63-2.66 0-1.46 1.18-2.65 2.63-2.65 1.46 0 2.64 1.19 2.64 2.65 0 1.47-1.18 2.66-2.64 2.66zm-21.11 0H31.53c-1.49 0-2.64 1.16-2.64 2.65v47.75c0 1.49 1.15 2.65 2.64 2.65h10.55c1.49 0 2.64-1.16 2.64-2.65V42.1c0-1.49-1.15-2.65-2.64-2.65zm-2.64 47.74h-5.27V44.75h5.27v42.44zm29.03-26.52H57.92c-1.49 0-2.64 1.16-2.64 2.65v26.53c0 1.49 1.15 2.65 2.64 2.65h10.55c1.49 0 2.64-1.16 2.64-2.65V63.32c0-1.49-1.15-2.65-2.64-2.65zm-2.64 26.52h-5.27V65.97h5.27v21.22z"/>

<path d=" M 15.69 65.97 L 5.14 65.97 C 3.65 65.97 2.5 67.13 2.5 68.63 L 2.5 89.85 C 2.5 91.34 3.65 92.5 5.14 92.5 L 15.69 92.5 C 17.18 92.5 18.33 91.34 18.33 89.85 L 18.33 68.63 C 18.33 67.13 17.18 65.97 15.69 65.97 Z  M 13.06 87.19 L 7.78 87.19 L 7.78 71.28 L 13.06 71.28 L 13.06 87.19 Z  M 94.86 39.45 L 84.31 39.45 C 82.82 39.45 81.67 40.61 81.67 42.1 L 81.67 89.85 C 81.67 91.34 82.82 92.5 84.31 92.5 L 94.86 92.5 C 96.35 92.5 97.5 91.34 97.5 89.85 L 97.5 42.1 C 97.5 40.61 96.35 39.45 94.86 39.45 Z  M 92.22 87.19 L 86.94 87.19 L 86.94 44.75 L 92.22 44.75 L 92.22 87.19 Z  M 85.46 22.37 C 87.9 23.87 90.96 23.92 93.46 22.52 C 95.96 21.11 97.5 18.45 97.5 15.57 C 97.55 12.38 95.68 9.46 92.77 8.18 C 89.86 6.89 86.47 7.47 84.16 9.67 C 81.84 11.86 81.06 15.23 82.16 18.23 L 67.32 30 C 64.79 28.44 61.6 28.44 59.07 30 L 44.23 18.23 C 45.17 15.8 44.83 13.05 43.34 10.92 C 41.85 8.79 39.4 7.55 36.81 7.61 C 34.08 7.62 31.55 9.04 30.11 11.36 C 28.67 13.69 28.52 16.59 29.71 19.05 L 13.88 34.97 C 11.43 33.77 8.54 33.92 6.23 35.37 C 3.92 36.82 2.51 39.36 2.5 42.1 C 2.48 45.39 4.47 48.36 7.52 49.56 C 10.57 50.76 14.04 49.96 16.25 47.53 C 18.46 45.11 18.96 41.57 17.51 38.62 L 33.34 22.7 C 35.76 23.9 38.62 23.77 40.93 22.37 L 55.77 34.14 C 54.92 36.57 55.29 39.26 56.76 41.37 C 58.23 43.48 60.63 44.74 63.19 44.75 C 65.76 44.74 68.15 43.48 69.63 41.37 C 71.1 39.26 71.47 36.57 70.62 34.14 L 85.46 22.37 Z  M 89.58 12.92 C 91.04 12.92 92.22 14.11 92.22 15.57 C 92.22 17.04 91.04 18.23 89.58 18.23 C 88.13 18.23 86.94 17.04 86.94 15.57 C 86.94 14.11 88.13 12.92 89.58 12.92 Z  M 10.42 44.75 C 8.96 44.75 7.78 43.56 7.78 42.1 C 7.78 40.63 8.96 39.45 10.42 39.45 C 11.87 39.45 13.06 40.63 13.06 42.1 C 13.06 43.56 11.87 44.75 10.42 44.75 Z  M 36.81 18.23 C 35.35 18.23 34.17 17.04 34.17 15.57 C 34.17 14.11 35.35 12.92 36.81 12.92 C 38.26 12.92 39.44 14.11 39.44 15.57 C 39.44 17.04 38.26 18.23 36.81 18.23 Z  M 63.19 39.45 C 61.74 39.45 60.56 38.26 60.56 36.79 C 60.56 35.33 61.74 34.14 63.19 34.14 C 64.65 34.14 65.83 35.33 65.83 36.79 C 65.83 38.26 64.65 39.45 63.19 39.45 Z  M 42.08 39.45 L 31.53 39.45 C 30.04 39.45 28.89 40.61 28.89 42.1 L 28.89 89.85 C 28.89 91.34 30.04 92.5 31.53 92.5 L 42.08 92.5 C 43.57 92.5 44.72 91.34 44.72 89.85 L 44.72 42.1 C 44.72 40.61 43.57 39.45 42.08 39.45 Z  M 39.44 87.19 L 34.17 87.19 L 34.17 44.75 L 39.44 44.75 L 39.44 87.19 Z  M 68.47 60.67 L 57.92 60.67 C 56.43 60.67 55.28 61.83 55.28 63.32 L 55.28 89.85 C 55.28 91.34 56.43 92.5 57.92 92.5 L 68.47 92.5 C 69.96 92.5 71.11 91.34 71.11 89.85 L 71.11 63.32 C 71.11 61.83 69.96 60.67 68.47 60.67 Z  M 65.83 87.19 L 60.56 87.19 L 60.56 65.97 L 65.83 65.97 L 65.83 87.19 Z "/>
